X:1
T:Trio No. 1
T: 2 Trios 
T:from "6 Trios for Organ" Op. 10, No. 1/6 - Leipzig (ca.1850) arr. for Oboe, Violin and Cello 
T:Carl Ferdinand Becker (1804-1877)
T:Arrangement by Felix Scharpf
T:twoflutes 2019 / Felix Scharpf / https://commons.wikimedia.org/wiki/File:Carl_Ferdinand_Becker.jpg
T:twoflutes 2019 / Felix Scharpf / https://commons.wikimedia.org/wiki/File:Carl_Ferdinand_Becker.jpg
T:twoflutes 2019 / Felix Scharpf / https://commons.wikimedia.org/wiki/File:Carl_Ferdinand_Becker.jpg
T:twoflutes 2019 / Felix Scharpf / https://commons.wikimedia.org/wiki/File:Carl_Ferdinand_Becker.jpg
T:twoflutes 2019 / Felix Scharpf / https://commons.wikimedia.org/wiki/File:Carl_Ferdinand_Becker.jpg
T:twoflutes 2019 / Felix Scharpf / https://commons.wikimedia.org/wiki/File:Carl_Ferdinand_Becker.jpg
C:Carl Ferdinand Becker (1804-1877)
Z:twoflutes 2019 / Felix Scharpf / https://commons.wikimedia.org/wiki/File:Carl_Ferdinand_Becker.jpg
%%score [ 1 2 3 ]
L:1/8
Q:1/2=70
M:4/4
K:F
V:1 treble nm="Oboe" snm="Ob."
V:2 treble nm="Violin" snm="Vl."
V:3 bass nm="Cello" snm="Vc."
V:1
"^Trio I" z8 | z8 | z8 | z8 |!mp! (d2 f2 e2 d2 | ^c2 e2 a2 g2 | f2 d2 e2 fg | a2 g2 f2 e2 | %8
 d4) z4 |!mf! (A2 a6 | d2 d'2 c'bag | f8) | (b4 c'4 | d'2 c'2 b2 a2 | g4 a4 | b2 a2 g2 f2 | %16
 e2 d2 c2 BA | G2) z2 z4 |!mp! (c'2 b2 a2 gf | g2 a2 b2 =b2 | c'8) | (b2 a2 g2 f2 | e4 f4) | z8 | %24
 (c'2 b4 a2 | g2 f2 e2 d2 | ^c6 d2 | e2 f2 g2 f2 | e4 f4 | e2 d4 ^c2 | d4) z4 | z8 | z8 | z8 | %34
!mf! (f2 d2 e2 f2 | g2 e2 =B2 ^c2 | d2 f2 e2 d2 | ^c4 d2 e2 | f8) |"_dim." (a8- | a8 | g8 | %42
!>(! f2 d2 e2 f2 | g4 e4 |[Q:1/2=50] =B4 ^c4!>)! |!mp! d8) |][Q:1/2=70]"^Trio II" z8 | %47
!mp! (c2 d2 e2 c2 | d8- | d2) e2 ^f2 d2 |"_cresc." (g2 ^f2 g2 a2 | b2 a2 g2 f2 | _e2 d2 e2 =e2 | %53
 f8) | e8 | (g8 | ^f8) | z8 | z8 | z8 | z8 |!mf! (c2 =B2 A2 c2 | =B4 ^c4) | (d2 ^c2 =B2 d2 | %64
 g2 ^f2 e2 d2 | c2 =B2 A4) | (f2 e2 d2 c2 | B2 A2 G4) | (A2 B2 =B2 ^c2 | d2 e2 f2 d2 | ^c6) (d2 | %71
 e2 d2 ^c2 e2 | d2 _e2 d2 c2 | B2 A2 B2 =B2 | c2 d2 _e2 =e2 |!mf!!<(! f8!<)! | e8) | %77
!mf!!<(! (g8!<)! | ^f8) | z8 | z8 | z8 | z8 | z8 | (g2 f2 ed c2 | B8) | (A2 ^c2 d2 =c2 | %87
 B2 A2 G2 ^F2 | G2 A2 B2 =B2 | c2 d2 ^c4) | (d2 c2 B2 A2 | B8) | (c2 B2 A2 G2 | A4 c4) | %94
!mf!!<(! (f8!<)! | e8) |!mf!!<(! (g8!<)! | ^f4) (f4 |!mf!!<(! g8)!<)! | (e8 | f8) | %101
!mp! (c2 d2 e2 c2 | d8- | d2) ((e2 ^f2 d2) |"_cresc." b2 a2 g2 ^f2 | g2 a2 b2 a2 | g2 f4 e2 | %107
 f4) z4 |!mf!"_dim." (f4 e4) | (a4 g4) | (b4 a4) | (b4[Q:1/2=60] a2 g2 | %112
[Q:1/2=50] f4[Q:1/2=40] Pe4 |!mp! f8) |] %114
V:2
 z8 | z8 |!mp! (D2 F2 E2 D2 | ^C2 E2 A2 G2 | F2 D2 E2 FG | A2 G2 F2 E2 | D4) z4 |!mf! (A,2 A6 | %8
 D2 d2 cBAG | F8) | (B4 c4 | d2 c2 B2 A2 | G4 A4 | B2 A2 G2 F2 | E2 D2 C2 B,A, | G,2) z2 z4 | %16
!mp! (c2 B2 A2 GF | G2 A2 B2 =B2 | c8) | (B2 A2 G2 F2 | E4 F4) | z8 | (c2 B4 A2 | G2 F2 E2 D2 | %24
 C6 D2 | E2 F2 G2 F2 | E4 F4 | E2 D2 ^C2 D2 | ^C4 D4 | E2 F2 E4 | D4) z4 | z8 |!mf! (F2 D2 E2 F2 | %33
 G2 E2 =B,2 ^C2 | D2 F2 E2 D2 | ^C4 D2 E2 | D4) (G2 F2 | E4 F2 G2 | F2 A2 G2 F2 | E2 ^C2 =B,2 C2 | %40
 D2 F2 E2 D2 | ^C2 E2"_dim." A4- | A2)!>(! (F2 G2 D2 | E4 G4- | G2 F4 E2!>)! |!mp! F8) |] %46
!mp! (A2 G2 F2 A2 | G8) | (B2 A2 G2 B2 | A8) |"_cresc." (B2 A2 G2 ^F2 | G2 A2 B2 =B2 | %52
 c2 =B2 c2 _B2 | A2 B2 c2 A2 | G8) | (B2 c2 d2 B2 | A8) |!mp! (B2 A2 G2 ^F2 | G2 A2 G2 F2 | %59
 _E2 D2 E2 =E2 | F8 | E8) | (G8 | ^F8) | z8 | (A,2 =B,2 C2 ^C2 | D8) | (G,2 A,2 B,2 =B,2 | %68
 C2 D4 E2 | D2 ^C2 D2 F2) | (G2 F2 E2 D2 | ^C2 D2 E2 C2 | D2) (c2 B2 A2 | G2 ^F2 G2 =F2 | %74
 _E2 D2 C2) (c2 | =B2 G2 A2 B2 | c8) |!mf!"_dim." (A2 ^c2 d2 e2 | ^c2 B2 =B2 c2 | d2 ^c2 e2 d2 | %80
 c2 =B2 A2 B2 | c2 ^c2 d2 =c2 | B2 =B2 c_BAG | F8) |!mp! E8 | (G8 | ^F8) | z8 | z8 | z8 | D8- | %91
 D2 (^F2 G2 D2) | C8- | C2 ((E2 F2 C2) | D2 E2 F2 G2 | A2 =B2 c2 A2 | G2 A2 B2 c2) | %97
 (d2 ^c2 d2 =c2 | B2 A2 G2 A2 | B2 A2 B2 G2 | A2 G2 F2 A2 | G8) | (B2 A2 G2 B2 | A8) | %104
"_cresc." (G2 ^F2 G2 A2 | B2 A2 G2 A2 | B2 A2 G4 | F4) E4 |!mf!"_dim." (A4 G4 | c8) | (B2 c2 d4- | %111
 d4) (c2 B2- | B2 A4 G2 |!mp! A8) |] %114
V:3
!mp! (D,2 F,2 E,2 D,2 | ^C,2 E,2 A,2 G,2 | F,2 D,2 E,2 F,G, | A,2 G,2 F,2 E,2 | D,4) z4 | %5
!mf! (A,,2 A,6 | D,2 D2 CB,A,G, | F,8) | (B,4 C4 | D2 C2 B,2 A,2 | G,4 A,4 | B,2 A,2 G,2 F,2 | %12
 E,2 D,2 C,2 B,,A,, | G,,2) z2 z4 |!mp! (C2 B,2 A,2 G,F, | G,2 A,2 B,2 =B,2 | C8) | %17
 (B,2 A,2 G,2 F,2 | E,4 F,4) | z8 | (C2 B,4 A,2 | G,2 F,2 E,2 D,2 | C,6 D,2 | E,2 F,2 G,2 F,2 | %24
 E,4 F,4 | E,2 D,2 ^C,2 D,2) | A,8- | A,8- | A,8- | A,4 G,4 |!mf! (D,2 D,2 E,2 F,2 | %31
 G,2 E,2 =B,,2 ^C,2 | D,2 F,2 E,2 D,2 | ^C,4 D,2 E,2 | D,8) | (A,,8 | B,,4 G,,4 | A,,8) | %38
 (D,2 F,2 E,2 D,2 | ^C,2 E,2 A,2 G,2 | F,2 D,2 E,2 F,G, |"_dim." A,8- |!>(! A,8- | A,8- | %44
 A,8)!>)! |!mp! D,8 |]!mp! (F,8 | E,8) | (G,8 | ^F,8) | z8 | z8 | z8 | z8 | (C2 D2 E2 C2 | G,8) | %56
 (D2 E2 ^F2 D2) |!mp! (G,2 ^F,2 G,2 A,2 | B,2 A,2 B,2 =B,2 | C2 =B,2 C2 _B,2 | A,2 G,2 F,2 G,2 | %61
 A,8) |"_cresc." (E,2 ^F,2 G,2 E,2 | =B,8) | (E,2 ^F,2 G,2 ^G,2 | A,8) | (D,2 E,2 F,2 ^F,2 | G,8) | %68
 z8 |!mf!!<(! (F,8!<)! | E,8) |!mf!!<(! (G,8!<)! | ^F,8) | z8 | z8 | z8 |!mf! (C2 E2 D2 C2 | %77
"_dim." ^C2 A,2 =B,2 C2 | B,2 ^F,2 ^G,2 B,2) | (=B,2 A,2 G,2 _A,2 | A,2 =B,2 C2 B,2 | %81
 A,2 G,2 ^F,D,E,F, | G,2 F,2 E,C,D,E, | F,2 G,2 A,2 B,2 |!mp! C8) | (G,2 A,2 B,2 C2 | D8) | %87
 (G,2 ^F,2 G,2 A,2 | B,2 A,2 G,2 F,2 | E,2 D,2 A,2 G,2 | ^F,8) | G,8 | E,8 | F,8 | z8 | z8 | z8 | %97
 z8 | z8 | z8 | (F,8 | E,8) | (G,8 | ^F,8) | z8 | z8 | z8 | z8 |"_dim." z8 | (F,4 E,4) | %110
 (G,4 ^F,4) | (G,4 A,2 B,2 | C4) (C,4 |!mp! F,8) |] %114

